X:1
T:Suite III
T:Suite pour violoncelle seul III.
T:BWV 1009
T:J. S. Bach
%%score ( 1 2 3 4 )
L:1/8
Q:1/4=72
M:3/4
K:C
V:1 bass nm="Violoncello" snm="Vc."
V:2 bass 
V:3 bass 
V:4 bass 
V:1
"^Prélude." CB,/A,/ G,/F,/E,/D,/ C,/G,,/E,,/G,,/ | C,,2- C,,/D,,/E,,/F,,/ G,,/A,,/B,,/C,/ | %2
 (D,/C,/B,,/A,,/) (G,,/A,,/B,,/C,/) (D,/E,/F,/D,/) | (E,/F,/E,/D,/) (C,/D,/E,/F,/) (G,/A,/B,/C/) | %4
 (D/C/B,/A,/) (G,/A,/B,/C/) (D/E/F/D/) | E/F/E/D/ C/C/B,/A,/ G,/F,/E,/D,/ | %6
 C,/(B,/C/D/ E/D/C/B,/) A,/C/G,/C/ | (^F,/E,/F,/G,/) (A,/G,/F,/E,/) D,/F,/C,/F,/ | %8
 B,,/(A,/B,/C/ D/C/B,/A,/) G,/B,/^F,/B,/ | (E,/D,/E,/^F,/) (G,/F,/E,/D,/) C,/E,/B,,/E,/ | %10
 A,,/(G,/A,/B,/ C/B,/A,/G,/) ^F,/A,/E,/A,/ | (D,/C,/D,/E,/) (^F,/E,/D,/C,/) B,,/D,/A,,/D,/ | %12
 G,,/(D,/E,/^F,/) (G,/A,/B,/C/) (D/C/B,/A,/) | (B,/C/D/C/) (B,/A,/G,/A,/) (B,/A,/G,/=F,/) | %14
 (E,/G,/E,/^C,/) (A,,/B,,/C,/D,/) (E,/F,/G,/E,/) | F,/D/A,/F,/ (D,/E,/F,/G,/) (A,/B,/C/A,/) | %16
 B,/D/B,/^G,/ (E,/^F,/^G,/A,/) (B,/C/D/B,/) | (C/D/C/B,/) (A,/=F,/E,/D,/) (C,/B,,/A,,/G,,/) | %18
 (F,,/A,,/B,,/^C,/) (D,/E,/F,/D,/) (B,/^G,/A,/D,/) | E,,/(B,,/D,/A,/) ^G,/B,/E,/G,/ B,/D/C/^G,/ | %20
 A,/^D,/(A,/B,/ A,/)D,/(A,/B,/ A,/)D,/(A,/B,/ | C/)E,/(A,/B,/ C/)E,/(A,/B,/ C/)E,/(B,/C/ | %22
 D/)E,/(B,/C/ D/)(E,/B,/C/) D/B,/(^G,/^F,/ | E,/)C/(A,/^G,/ A,/)C/(A,/^G,/ A,/)C/(A,/^F,/ | %24
 ^D,/)C/(A,/^G,/ A,/)C/(A,/G,/ A,/)C/A,/=F,/ | =D,/B,/(^G,/^F,/ G,/)B,/(=F,/E,/ F,/)B,/E,/D,/ | %26
 C,/A,,/C,/E,/ C,/A,,/C,/E,/ A,/C/A,/E,/ | C,/A,,/C,/E,/ C,/A,,/C,/E,/ A,/C/A,/F,/ | %28
 D,/B,,/D,/G,/ D,/B,,/D,/G,/ B,/D/B,/G,/ | F,/B,,/(F,/G,/ F,/)B,,/(F,/G,/ F,/)D/B,/G,/ | %30
 E,/C,/E,/G,/ E,/C,/E,/G,/ _B,/D/B,/G,/ | E,/C,/E,/G,/ E,/C,/E,/G,/ C/_B,/A,/G,/ | %32
 A,/F,/(E,/F,/ G,/A,/B,/C/ D/)A,/F,/D,/ | G,/E,/(D,/E,/ F,/G,/A,/B,/ C/)G,/E,/C,/ | %34
 F,/D,/(F,/G,/ F,/)D,/(F,/G,/ F,/)C,/(F,/G,/ | F,/)B,,/(F,/G,/ F,/)A,,/(F,/G,/ F,/)G,,/(F,/G,/ | %36
 E,/)G,,/(C,,/G,,/ E,/)G,,/(C,,/G,,/ E,/)D,/C,/B,,/ | (A,,/E,/C/)E,/ (A,,/E,/C/)E,/ A,,/G,/F,/E,/ | %38
 F,/A,,/(D,,/A,,/ F,/)A,,/(D,,/A,,/ F,/)E,/D,/C,/ | (B,,/^F,/D/)F,/ (B,,/F,/D/)F,/ B,,/A,/G,/F,/ | %40
 G,/B,,/(E,,/B,,/ G,/)B,,/(E,,/B,,/ G,/)=F,/E,/D,/ | (C,/G,/E/)G,/ (C,/G,/E/)G,/ C,/_B,/A,/G,/ | %42
 A,/C,/(F,,/C,/ A,/)C,/(F,,/C,/ A,/)G,/F,/E,/ | (D,/A,/F/)A,/ (D,/A,/F/)A,/ D,/A,/B,/C/ | %44
 (G,,/B,/F/)B,/ (G,,/B,/F/)B,/ (G,,/B,/F/)B,/ | (G,,/C/E/)C/ (G,,/C/E/)C/ (G,,/C/E/)C/ | %46
 (G,,/C/D/)C/ (G,,/B,/D/)B,/ (G,,/A,/D/)A,/ | (G,,/B,/D/)B,/ (G,,/B,/G/)B,/ (G,,/B,/D/)B,/ | %48
 (G,,/B,/C/)B,/ (G,,/A,/C/)A,/ (G,,/G,/C/)G,/ | (G,,/A,/C/)A,/ (G,,/A,/F/)A,/ (G,,/A,/C/)A,/ | %50
 (G,,/A,/B,/)A,/ (G,,/G,/B,/)G,/ (G,,/F,/B,/)F,/ | (G,,/G,/B,/)G,/ (G,,/G,/E/)G,/ (G,,/G,/B,/)G,/ | %52
 (G,,/G,/A,/)G,/ (G,,/F,/A,/)F,/ (G,,/E,/A,/)E,/ | (G,,/F,/A,/)F,/ (G,,/F,/D/)F,/ (G,,/F,/A,/)F,/ | %54
 (G,,/F,/B,/)F,/ (G,,/F,/D/)F,/ (G,,/F,/B,/)F,/ | (G,,/E,/C/)E,/ (G,,/E,/E/)E,/ (G,,/E,/C/)E,/ | %56
 (G,,/F,/B,/)F,/ (G,,/F,/D/)F,/ (G,,/F,/B,/)F,/ | (G,,/_E,/C/)E,/ (G,,/E,/_E/)E,/ (G,,/E,/C/)E,/ | %58
 (G,,/^F,/C/)F,/ (G,,/D,/C/)D,/ (G,,/=E,/C/)E,/ | (G,,/^F,/C/)F,/ (G,,/E,/C/)E,/ (G,,/^F,/C/)F,/ | %60
 G,,/G,/(B,/A,/) (G,/=F,/E,/D,/) G,/E,/G,/D,/ | G,/^C,/(G,/A,/ G,/)C,/(G,/A,/ G,/)C,/(G,/A,/ | %62
 F,/)D,/(A,/G,/) (F,/E,/D,/=C,/) F,/D,/F,/C,/ | F,/B,,/(F,/G,/ F,/)B,,/(F,/G,/ F,/)B,,/(F,/G,/ | %64
 E,/)C,/(G,/F,/) (E,/D,/C,/B,,/) C,/A,,/C,/G,,/ | C,/^F,,/(C,/D,/ C,/)F,,/(C,/D,/ C,/)F,,/(C,/D,/ | %66
 B,,/)G,,/B,,/D,/ B,,/G,,/B,,/D,/ B,,/=F,,/B,,/D,/ | %67
 _B,,/E,,/(B,,/C,/ B,,/)E,,/(B,,/C,/ B,,/)E,,/(B,,/C,/ | %68
 A,,/)F,,/A,,/C,/ A,,/F,,/A,,/C,/ A,,/E,,/A,,/C,/ | %69
 =B,,/D,,/B,,/F,/ B,,/D,,/B,,/F,/ B,,/D,,/B,,/F,/ | E,/C,,/D,,/E,,/ F,,/G,,/A,,/B,,/ C,/D,/E,/F,/ | %71
 G,/E,/(C,/D,/ E,/F,/G,/A,/ _B,/)A,/B,/G,/ | A,/F,/(D,/E,/ F,/G,/A,/=B,/ C/)B,/C/A,/ | %73
 B,/G,/(E,/F,/ G,/A,/B,/C/ D/)C/D/B,/ | C/A,/(F,/G,/ A,/B,/C/D/ E/)D/E/C/ | %75
 (B,/A,/B,/)G,/ (F,/E,/F,/)D,/ (B,,/A,,/B,,/)G,,/ | B,2 z2 z2 | %77
 E,,/(C/B,/A,/) G,/F,/E,/D,/ C,/G,,/E,,/G,,/ | A,2 z2 z2 | B,2 z2 z2 | C2 (C2 B,2) | %81
 C2- C/E,/(C/D/ C/)E,/(C/D/) | _B,2- B,/E,/(B,/C/ B,/)E,/(B,/C/) | %83
 A,2- A,/(F,/E,/F,/) A,/(F,/E,/F,/) | =B,2- B,/C/B,/C/ B,/C/B,/C/ |"_(    )" TB,6 | %86
 CB,/A,/ G,/F,/E,/D,/ C,/G,,/E,,/G,,/ | C2 z2 z2 |][M:4/4][Q:1/4=56]"^Allemande." G,/A,/B,/ | %89
 (C/B,/4A,/4G,/)F,/ (E,/G,/4F,/4E,/)D,/ (C,/G,,/4F,,/4E,,/)D,,/ C,,/C,/D,/E,/ | %90
 (F,/E,/4D,/4E,/)G,/ (D,/C,/4B,,/4C,/)G,/ B,,(TA,,/G,,/) (G,/4F,/4E,/4F,/4G,/)E,/ | %91
 A,,/G,/C/E,/ (F,/4E,/4D,/4E,/4F,/)D,/ G,,/F,/B,/D,/ (E,/4D,/4C,/4D,/4E,/)C,/ | %92
 (F,,/4A,,/4B,,/4C,/4D,/)F,/ E,/C,/G,,/B,,/ C,C,, (E,/4D,/4C,/4B,,/4C,/)E,/ | %93
 ^F,/A,/D/F,/ G,/B,,/TA,,/G,,/ A,3/2(D,/4E,/4 ^F,/4G,/4A,/4B,/4C/)A,/ | %94
 B,/D,/4C,/4D,/E,/ =F,/A,,/B,,/F,/ E,^F, G,A, | B,C DE (^F/4C/4D,/4C/4F/)C/ (B,/4D/4E/4F/4G/)B,/ | %96
 A,/G/^F/D,/ (G,/4B,/4C/4D/4E/)G,/ ^F,/E/D/B,,/ (E,/4G,/4A,/4B,/4C/)E,/ | %97
 D,/C/B,/G,,/ (C,/4B,,/4C,/)E,/(B,,/ C,/)(^F,/4E,/4F,/)(C,/4B,,/4 C,/)(G,/4F,/4G,/)(C,/4B,,/4 | %98
 C,/)(A,/4G,/4A,/)C,/ (B,,/4D,/4E,/4^F,/4G,/)D/ C/(^F,/4E,/4F,/)A,,/ (G,,/4B,,/4C,/4D,/4E,/)B,/ | %99
 A,/(D,/4C,/4D,/)^F,,/ (E,,/4G,,/4A,,/4B,,/4C,/)G,/ (^F,/4A,/4B,/4C/4D/)C,/ B,,/G,/D,,/^F,/ | %100
 G,/(B,/4C/4D/)(G,/4A,/4 B,/)G,/D,/^F,/ G,2 z/ :: D/E/^F/ | %102
 (G/^F/4E/4D/)C/ (B,/D/4C/4B,/)A,/ (G,/D,/4C,/4B,,/)A,,/ G,,/B,/C/D/ | %103
 (E/4D/4C/4B,/4C/)A,/ (=F,/D,/4E,/4F,/)B,/ ^G,/^F,/E,/D,/ (C,/4B,,/4C,/4D,/4E,/)C,/ | %104
 F,,/A,,/C,/E,/ (D,/4C,/4D,/4E,/4F,/)D,/ ^G,/D,/E,,/B,/ (C/4B,/4A,/4B,/4C/)A,/ | %105
 (F,/4E,/4D,/4E,/4F,/)D,/ (B,,/4A,,/4^G,,/4A,,/4B,,/)D,/ E,,3/2(E,/4^F,/4 ^G,/4A,/4B,/4C/4D/)B,/ | %106
 (C/4B,/4A,/4^G,/4A,/)C,/ D,/B,/E,/^G,/ A,3/2 x/ x2 | %107
 G,/(_B,/4A,/4B,/)C,/ E,,/_B,/TA,/G,/ A,/(F,/4E,/4F,/)A,/ (^C,/4D,/4E,/4F,/4G,/)A,,/ | %108
 D,,/(D,/4E,/4F,/)(F,/4G,/4 A,/)(=B,/4C/4D/)C/ (B,/4D,/4G,,/4D,/4B,/)F,/ (E,/4G,/4A,/4B,/4C/)E,/ | %109
 D,/C/B,/G,,/ (C,/4E,/4F,/4G,/4A,/)C,/ B,,/A,/G,/E,,/ (A,,/4C,/4D,/4E,/4F,/)A,,/ | %110
 G,,/F,/E,/C,,/ F,,/(A,/4G,/4F,/)(F,/4E,/4 D,/)(C/4B,/4C/)(B,/4A,/4 G,/)(F,/4E,/4D,/)B,/ | %111
 C(A,,/4_B,/4A,/4G,/4) (F,/4E,/4F,/)A,/(E,/ F,/)(=B,/4A,/4B,/)(F,/4E,/4 F,/)(C/4B,/4C/)(F,/4E,/4 | %112
 F,/)(D/4C/4D/)F,/ (E,/4D,/4C,/4D,/4E,/)G,/ (C/B,/4A,/4G,/)F,/ E,/C,/G,,/B,,/ | %113
 C,,/(C/4B,/4C/)(G,/4F,/4 G,/)(E,/4D,/4E,/)C,/ C2 z/ :|[M:3/4]"^Courante." C | %115
[Q:1/4=108] CG,E,C,G,,E,, | C,,(CDCB,C) | DB,G,D,B,,G,, | F,,(DCB,A,G,) | C(B,A,G,F,E,) | %120
 F,D,G,,A,G,F, | (E,D,C,B,,C,)G,, | C,,3 (C,/D,/E,^F,) | B,,(D,G,A,B,C) | ^G,DE,(DCB,) | %125
 CB,A,^G,A,E, | (C,D,E,)C,A,,=G,, | ^F,,A,,D,E,^F,G, | A,^F,D,CB,A, | (B,A,G,)^F,G,D, | %130
 (B,,C,D,)B,,G,,=F,, | E,,(G,A,G,^F,G,) | C,D,C,B,,A,,G,, | ^F,,(A,B,A,G,A,) | C,E,D,C,B,,A,, | %135
 G,,(B,CB,)E,B, | A,,(CDC)^F,C | B,,(DEDCB,) | (A,G,=F,E,F,)D, | C,,(F,E,D,E,C,) | %140
 B,,(C,D,E,^F,G,) | A,,(D,E,^F,G,A,) | G,,(E,^F,G,A,B,) | D,,CA,C^F,C | D,CA,C^F,C | %145
 D,_B,G,B,^F,B, | D,_B,G,B,^F,B, | _E,A,G,A,^F,A, | _E,A,G,A,^F,A, | CA,^F,D,A,,^F,, | %150
 D,,3 D,^F,A, | (B,CD)A,B,G, | (A,B,C)G,A,^F, | G,D,E,C,A,,^F, | G,,4 z :: D | DB,G,D,B,,D, | %157
 (F,D,B,,A,,B,,)G,, | C,,F,E,D,E,G, | (CDE)B,CA, | (F,G,A,)E,F,D, | B,,(A,B,CDB,) | %162
 ^G,^F,G,A,B,G, | E,B,^G,E,ED, | C,A,E,C,B,,=G, | A,,F,C,A,,G,,E, | F,,D,A,,F,,E,,C, | %167
 D,,(CB,CD^G,) | C,,(EDCB,A,) | E,(DCB,A,^G,) | A,(E,D,C,D,E,) | A,,3 (A,/B,/C/B,/C/A,/) | %172
 G,E,C,E,G,_B, | E,,(DC_B,A,G,) | A,(F,E,F,)C,F, | A,,C,F,,A,G,A, | (_B,A,G,)F,E,G, | %177
 ^C,E,G,,(_B,,A,,G,,) | F,,E,,F,,G,,A,,F,, | D,,F,,A,,(D,E,F,) | ^G,,(F,E,D,C,B,,) | %181
 A,,C,F,A,F,D, | B,,(A,G,F,E,D,) | C,E,A,CA,F, | D,(CB,A,G,F,) | E,G,CECA, | F,(EDCB,A,) | %187
 B,DB,G,D,B,, | G,,F,D,F,B,,F, | G,,F,D,F,B,,F, | G,,_E,C,E,B,,E, | G,,_E,C,E,B,,E, | %192
 _A,,D,C,D,B,,D, | _A,,D,C,D,B,,D, | F,G,,B,,D,F,B, | D3 CB,A, | (G,F,E,)G,F,D, | (E,D,C,)E,D,B,, | %198
 C,G,A,F,D,B, | C4 z :|[M:3/4][Q:1/4=42]"^Sarabande." C2 C>A, B,2 | _B,2 B,>G, A,2 | %202
 D,(E,/F,/) F,>D, E,F, | (C,/B,,/C,/A,,/) B,,D, G,,F,, | G,2 G,>E, (^F,/D,/F,/A,/) | %205
 C2 C>A, (C/B,/A,/G,/) | A,(_B,/=C/) B,(A,/C/) _E^F, | G,2 G,4 :: =B,2 B,2 (D,/C,/B,,/A,,/) | %209
 B,2 B,2 (D,/C,/D,/B,,/) | (C,/E,/^G,/B,/) (A,3/2B,/4C/4) D,B, | %211
 (A,^F,) (A,/^G,/^F,/E,/) (TD,^C,/D,/) | ^C,A, E(G/F/) GE | ^C _B,2 A,/G,/ (F,/E,/)(G,/^C,/) | %214
 D,FG,E (A,/B,/D/^C/) | D2 D4 | ^F,3/2(G,/4A,/4) (G,/F,/E,/F,/) (G,/E,/F,/A,/) | %217
 C3/2(D/4E/4) (D/C/B,/C/) (D/B,/C/E/) | DB,,C,A, B,C | CB,A,B, G,A,, | %220
 _B,,(E,/F,/) (G,/F,/E,/G,/) F,=B,, | C,(^F,/G,/) (A,/G,/F,/A,/) (G,/D/G,/=F,/) | %222
 E,C,F,,D, G,,(C,/B,,/) | C,2 C4 :|[M:2/2]S[Q:1/2=90]"^Bourrée I" E,F, | G,2 (C,B,,) C,2 C2 | %226
 B,2 A,B, G,2 D,E, | F,2 (B,,A,,) B,,2 G,2 | (F,E,D,E,) C,2 (CB,) | (A,B,C)G, (^F,B,C)E, | %230
 (D,B,C)C, B,,D,^F,A, | D2 B,G, D,2 ^F,2 | G,2 D,2 G,,2 :: B,C | D2 B,G, F,2 B,2 | %235
 (E,G,C)D E2 C^G, | A,2 F,A, D,(CB,A,) | E,A,^G,^F, E,2 (B,E,) | C(A,^G,A,) (B,E,)(CE,) | %239
 D(B,A,B,) (CE,)(DD,) | C,EB,C E,2 (A,^G,) | A,2 E,2 A,,2 A,B, | C2 (^F,E,) F,2 D,2 | %243
 (G,,D,C)A, B,2 G,=F, | E,G,CE, D,FEC | DCB,A, G,2 B,C | (DB,G,)A, (B,G,D,)E, | %247
 (F,D,B,,)C, (D,B,,G,,)F, | (E,C,G,,)G, (E,C,G,,)C | (G,E,)(F,D,) (E,C,)(G,,E,) | %250
 (D,E,F,)C, (B,,E,F,)A,, | (G,,E,F,)F,, E,,G,,B,,D, | G,2 E,C, G,,2 B,,2 | C,6!dacoda! :: %254
[K:Bb][M:2/2][Q:1/2=68]"^Bourrée II""_piano" CD | E2 DC =B,2 C2 | (DC=B,A,) (G,F,E,D,) | %257
 E,(G,F,E,) D,(F,E,D,) | C,=B,,C,D, E,F,G,"^"A, | B,2 _A,G, F,2 E,2 | D,E,F,G, _A,B,CD | %261
 E2 DC B,_A,G,F, |"^(    )" TE,6 :: E,F, | G,2 G,F, G,2 =A,2 | (B,A,)(B,C) (B,C)(DB,) | %266
 (G,B,)(A,B,) (CB,)(A,G,) | ^F,2 =E,^F, D,2 (DC) | D2 (_E,D,) E,2 G,2 | (C=B,C)D E2 D2 | %270
 (C_B,)(A,G,) (B,A,)(G,^F,) | G,2 D,2 G,,2 G,_A, | B,2 (_A,G,) (F,=E,)(F,G,) | (B,_A,)(G,F,) D4- | %274
 D=B,CD EDCE | (DC=B,=A,) (G,F,E,D,) | (E,D,)(F,E,) (G,F,)(_A,G,) | (G,,=A,,=B,,C,) (D,E,F,D,) | %278
 (F,E,)(D,C,) (E,D,)(C,=B,,) | C,6!D.S.! :|[K:C][M:3/8]O"^Gigue."[Q:3/8=70] G, | C(C,/D,/E,/F,/) | %282
 (G,A,)B, | (CG,)E | (CG,)E | (D/C/D/E/)F | (B,C)E, | (G,,D,)C | (B,G,)D | (D^F,)G, | %290
 E,(E/D/C/B,/) | C(A,,/B,,/C,/D,/) | (E,A,,)C | C(E,^F,) | D,(D/C/B,/A,/) | B,(G,,/A,,/B,,/C,/) | %296
 (D,G,,)B, | B,(D,E,) | C,(C/B,/A,/G,/) | ^F,(A,/G,/F,/E,/) | D,2 D, | (C,/D,/)(B,,/D,/)(A,,/D,/) | %302
 (B,,/D,/)(A,,/D,/)(B,,/D,/) | (C,/D,/)(B,,/D,/)(A,,/D,/) | (B,,/D,/)(A,,/D,/)(G,,/D,/) | %305
 (F,/G,,/)(E,/G,,/)(D,/G,,/) | (E,/G,,/)(D,/G,,/)(E,/G,,/) | (F,/G,,/)(E,/G,,/)(D,/G,,/) | %308
 (E,/G,,/)(^F,/G,,/)(G,/G,,/) | (^F,/G,,/)(G,/G,,/)(A,/G,,/) | (G,/G,,/)(A,/G,,/)(B,/G,,/) | %311
 (A,/G,,/)(B,/G,,/)C | D,2 A, | (C/D/)_ED | .C._B,.A, | (^FG)A, | (^FG)A, | (C/D/)_ED | .C._B,.A, | %319
 (^CD)A, | (^CD)D, | (G,,/B,,/D,)E, | (A,,/C,/E,)^F, | (B,,/D,/)(G,/E,/)(=F,/D,/) | %324
 (C,/E,/A,/B,/C/A,/) | (D/A,/^F,/E,/D,/C,/) | (B,,/D,/G,/)B,,/A,,/^F,/ | G,D,B,, | G,,2 :: (D/C/) | %330
 (B,/C/)(A,/B,/)(G,/A,/) | (F,/G,/)(E,/F,/)(D,/E,/) | C,/(G,/A,/B,/C/D/) | EC,,E | %334
 (F,/A,/B,/C/D/C/) | (D,/^F,/^G,/A,/B,/A,/) | (^G,/^F,/)(G,/A,/)(B,/G,/) | TE,2 B, | C(E,F,) | %339
 D,(D/C/B,/A,/) | B,(G,,/A,,/B,,/C,/) | (D,G,,)_B, | _B,(D,E,) | C,(C/_B,/A,/G,/) | %344
 A,(F,,/G,,/A,,/_B,,/) | (C,F,,)A, | F,(^C,D,) | _B,(^G,A,) | (D/E/F)^G, | D,2 F | E(D/C/B,/A,/) | %351
 (B,/D/)(C/A,/)(B,/^G,/) | A,E,C, | A,,2 C | (^F,/E,/F,)D, | D,,/A,,/D,^F, | (G,/^F,/G,)D, | %357
 E,/=F,/G,/A,/_B,/G,/ | (A,/G,/F,/E,/F,/)D/ | (C/B,/A,/G,/C/)E,/ | G,,/(F,/E,/D,/E,/C,/) | G,2 G, | %362
 (F,/G,,/)(E,/G,,/)(D,/G,,/) | (E,/G,,/)(D,/G,,/)(E,/G,,/) | (F,/G,,/)(E,/G,,/)(D,/G,,/) | %365
 (E,/G,,/)(^F,/G,,/)(G,/G,,/) | (^F,/A,/)(D,/A,/)(E,/A,/) | (^F,/A,/)(G,/A,/)(E,/A,/) | %368
 (^F,/C/)(D,/C/)(E,/C/) | (^F,/C/)(E,/C/)(D,/C/) | (B,/D,/)(A,/D,/)(B,/D,/) | %371
 (C/D,/)(B,/D,/)(A,/D,/) | (B,/D,/)(D/D,/)F | G,,2 D, | (=F,/G,/)_A,G, | .F,._E,.D, | (B,C)D, | %377
 (B,C)D, | (F,/G,/)_A,G, | .F,._E,.D, | (^F,G,)D, | (^F,G,/)(=F,/E,/D,/) | (C,/E,/G,)A, | %383
 (D,/F,/A,)B, | (E,/G,/)(C/A,/)(_B,/G,/) | (A,/F,/D,/F,/E,/D,/) | (G,/D,/B,,/A,,/G,,/F,,/) | %387
 (E,,/G,,/C,/)E,,/D,,/B,,/ | C,E,G, | C2 :| %390
V:2
 x6 | x6 | x6 | x6 | x6 | x6 | x6 | x6 | x6 | x6 | x6 | x6 | x6 | x6 | x6 | x6 | x6 | x6 | x6 | %19
 x6 | x6 | x6 | x6 | x6 | x6 | x6 | x6 | x6 | x6 | x6 | x6 | x6 | x6 | x6 | x6 | x6 | x6 | x6 | %38
 x6 | x6 | x6 | x6 | x6 | x6 | x6 | x6 | x6 | x6 | x6 | x6 | x6 | x6 | x6 | x6 | x6 | x6 | x6 | %57
 x6 | x6 | x6 | x6 | x6 | x6 | x6 | x6 | x6 | x6 | x6 | x6 | x6 | x6 | x6 | x6 | x6 | x6 | x6 | %76
 F,,2 x4 | x6 | _E,,2 x4 | D,,2 x4 | C,,2 G,,4 | C,,2 x4 | C,,2 x4 | C,,2 x4 | C,,2 x4 | TD,6 | %86
 x6 | C,,2 x4 |][M:4/4] x3/2 | x8 | x8 | x8 | x8 | x4 ^F,,3/2 x5/2 | %94
 x4 C,/C,,/D,/C,,/ E,/C,,/^F,/G,,/ | G,/G,,/A,/G,,/ B,/G,,/C/G,,/ x4 | x8 | x8 | x8 | x8 | %100
 x4 G,,2 x/ :: x3/2 | x8 | x8 | x8 | x8 | x4 A,,3/2(C/4D/4 E/)(A,/4B,/4C/)E,/4F,/4 | x8 | x8 | x8 | %110
 x8 | x8 | x8 | x4 C,,2 x/ :|[M:3/4] x | x6 | x6 | x6 | x6 | x6 | x6 | x6 | x6 | x6 | x6 | x6 | %126
 x6 | x6 | x6 | x6 | x6 | x6 | x6 | x6 | x6 | x6 | x6 | x6 | x6 | x6 | x6 | x6 | x6 | x6 | x6 | %145
 x6 | x6 | x6 | x6 | x6 | x6 | x6 | x6 | x6 | x5 :: x | x6 | x6 | x6 | x6 | x6 | x6 | x6 | x6 | %164
 x6 | x6 | x6 | x6 | x6 | x6 | x6 | x6 | x6 | x6 | x6 | x6 | x6 | x6 | x6 | x6 | x6 | x6 | x6 | %183
 x6 | x6 | x6 | x6 | x6 | x6 | x6 | x6 | x6 | x6 | x6 | x6 | x6 | x6 | x6 | x6 | C,,4 x :| %200
[M:3/4] C,,2 D,2 x2 | C,,2 F,2 x2 | =B,, x C,, x3 | x6 | E,,2 A,,2 x2 | D,,2 G,,2 x2 | %206
 ^C, x D, x3 | x2 G,,4 :: G,,2 G,,2 x2 | ^G,,2 G,,2 x2 | x6 | x6 | x6 | x6 | x6 | x2 D,,4 | %216
 C,,2 x4 | A,,2 x4 | x4 D,2 | G,,2 x4 | x2 A,,2 x2 | x2 B,,2 x2 | x6 | x2 C,,4 :|[M:2/2] x2 | x8 | %226
 G,,2 x6 | x8 | C,,2 x6 | x8 | x8 | x8 | x6 :: x2 | x8 | x8 | x8 | x8 | x8 | x8 | x8 | x8 | x8 | %243
 x8 | x8 | x8 | x8 | x8 | x8 | x8 | x8 | x8 | x8 | C,,6 ::[K:Bb][M:2/2] x2 | x8 | x8 | x8 | x8 | %259
 x8 | x8 | x8 | x6 :: x2 | x8 | x8 | x8 | x8 | x8 | x8 | x8 | x8 | x8 | x8 | x8 | x8 | x8 | x8 | %278
 x8 | C,,6 :|[K:C][M:3/8] x | x3 | x3 | x3 | x3 | x3 | x3 | x3 | x3 | x3 | x3 | x3 | x3 | x3 | x3 | %295
 x3 | x3 | x3 | x3 | x3 | x3 | x3 | x3 | x3 | x3 | x3 | x3 | x3 | x3 | x3 | x3 | x3 | x3 | D,D,D, | %314
 D,D,D, | D,2 D, | D,2 D, | D,D,D, | D,2 D, | D,2 D, | D,2 x | x3 | x3 | x3 | x3 | x3 | x3 | x3 | %328
 x2 :: x | x3 | x3 | x3 | x3 | x3 | x3 | x3 | x3 | x3 | x3 | x3 | x3 | x3 | x3 | x3 | x3 | x3 | %347
 x3 | x3 | x3 | x3 | x3 | x3 | x3 | C2 x | x2 C | B,2 x | x3 | x3 | x3 | x3 | x3 | x3 | x3 | x3 | %365
 x3 | G,, x2 | x3 | G,, x2 | x3 | x3 | x3 | x3 | x3 | G,,G,,G,, | G,,G,,G,, | G,,2 G,, | G,,2 G,, | %378
 G,,G,,G,, | G,,G,,G,, | G,,2 G,, | G,, x2 | x3 | x3 | x3 | x3 | x3 | x3 | x3 | C,,2 :| %390
V:3
 x6 | x6 | x6 | x6 | x6 | x6 | x6 | x6 | x6 | x6 | x6 | x6 | x6 | x6 | x6 | x6 | x6 | x6 | x6 | %19
 x6 | x6 | x6 | x6 | x6 | x6 | x6 | x6 | x6 | x6 | x6 | x6 | x6 | x6 | x6 | x6 | x6 | x6 | x6 | %38
 x6 | x6 | x6 | x6 | x6 | x6 | x6 | x6 | x6 | x6 | x6 | x6 | x6 | x6 | x6 | x6 | x6 | x6 | x6 | %57
 x6 | x6 | x6 | x6 | x6 | x6 | x6 | x6 | x6 | x6 | x6 | x6 | x6 | x6 | x6 | x6 | x6 | x6 | x6 | %76
 D,2 x4 | x6 | G,2 x4 | F,2 x4 | G,,2 D,4 | G,,2 x4 | E,2 x4 | F,2 x4 | %84
 D,2- D,/E,/D,/E,/ D,/E,/D,/E,/ | x6 | x6 | E,2 x4 |][M:4/4] x3/2 | x8 | x8 | x8 | x8 | %93
 x4 D,3/2 x5/2 | x8 | x8 | x8 | x8 | x8 | x8 | x13/2 :: x3/2 | x8 | x8 | x8 | x8 | x4 E,3/2 x5/2 | %107
 x8 | x8 | x8 | x8 | x8 | x8 | x4 E,2 x/ :|[M:3/4] x | x6 | x6 | x6 | x6 | x6 | x6 | x6 | x6 | x6 | %124
 x6 | x6 | x6 | x6 | x6 | x6 | x6 | x6 | x6 | x6 | x6 | x6 | x6 | x6 | x6 | x6 | x6 | x6 | x6 | %143
 x6 | x6 | x6 | x6 | x6 | x6 | x6 | x6 | x6 | x6 | x6 | x5 :: x | x6 | x6 | x6 | x6 | x6 | x6 | %162
 x6 | x6 | x6 | x6 | x6 | x6 | x6 | x6 | x6 | x6 | x6 | x6 | x6 | x6 | x6 | x6 | x6 | x6 | x6 | %181
 x6 | x6 | x6 | x6 | x6 | x6 | x6 | x6 | x6 | x6 | x6 | x6 | x6 | x6 | x6 | x6 | x6 | x6 | E,4 x :| %200
[M:3/4] E,2 x4 | E,2 x4 | x2 G,, x3 | x6 | C,2 x4 | ^F,2 D,2 x2 | G, x5 | x6 :: %208
 D,(F,/E,/) F,>E, x2 | D,(F,/E,/) F,>E, x2 | x6 | x6 | x6 | x6 | x6 | x2 F,4 | A,,2 x4 | ^F,2 x4 | %218
 x6 | D,2 x4 | x6 | x6 | x6 | x2 E,4 :|[M:2/2] x2 | x8 | D,2 x6 | x8 | G,,2 x6 | x8 | x8 | x8 | %232
 x6 :: x2 | x8 | x8 | x8 | x8 | x8 | x8 | x8 | x8 | x8 | x8 | x8 | x8 | x8 | x8 | x8 | x8 | x8 | %251
 x8 | x8 | x6 ::[K:Bb][M:2/2] x2 | x8 | x8 | x8 | x8 | x8 | x8 | x8 | x6 :: x2 | x8 | x8 | x8 | %267
 x8 | x8 | x8 | x8 | x8 | x8 | x8 | x8 | x8 | x8 | x8 | x8 | x6 :|[K:C][M:3/8] x | x3 | x3 | x3 | %284
 x3 | x3 | x3 | x3 | x3 | x3 | x3 | x3 | x3 | x3 | x3 | x3 | x3 | x3 | x3 | x3 | x3 | x3 | x3 | %303
 x3 | x3 | x3 | x3 | x3 | x3 | x3 | x3 | x3 | x3 | x3 | x3 | x3 | x3 | x3 | x3 | x3 | x3 | x3 | %322
 x3 | x3 | x3 | x3 | x3 | x3 | x2 :: x | x3 | x3 | x3 | x3 | x3 | x3 | x3 | x3 | x3 | x3 | x3 | %341
 x3 | x3 | x3 | x3 | x3 | x3 | x3 | x3 | x3 | x3 | x3 | x3 | x3 | x3 | x3 | x3 | x3 | x3 | x3 | %360
 x3 | x3 | x3 | x3 | x3 | x3 | x3 | x3 | x3 | x3 | x3 | x3 | x3 | x3 | x3 | x3 | x3 | x3 | x3 | %379
 x3 | x3 | x3 | x3 | x3 | x3 | x3 | x3 | x3 | x3 | E,2 :| %390
V:4
 x6 | x6 | x6 | x6 | x6 | x6 | x6 | x6 | x6 | x6 | x6 | x6 | x6 | x6 | x6 | x6 | x6 | x6 | x6 | %19
 x6 | x6 | x6 | x6 | x6 | x6 | x6 | x6 | x6 | x6 | x6 | x6 | x6 | x6 | x6 | x6 | x6 | x6 | x6 | %38
 x6 | x6 | x6 | x6 | x6 | x6 | x6 | x6 | x6 | x6 | x6 | x6 | x6 | x6 | x6 | x6 | x6 | x6 | x6 | %57
 x6 | x6 | x6 | x6 | x6 | x6 | x6 | x6 | x6 | x6 | x6 | x6 | x6 | x6 | x6 | x6 | x6 | x6 | x6 | %76
 G,,2 x4 | x6 | C,2 x4 | G,,2 x4 | E,2 x4 | E,2 x4 | G,,2 x4 | A,,2 x4 | _A,,2 x4 | x6 | x6 | %87
 G,,2 x4 |][M:4/4] x3/2 | x8 | x8 | x8 | x8 | x4 A,,3/2 x5/2 | x8 | x8 | x8 | x8 | x8 | x8 | %100
 x13/2 :: x3/2 | x8 | x8 | x8 | x8 | x8 | x8 | x8 | x8 | x8 | x8 | x8 | x4 G,,2 x/ :|[M:3/4] x | %115
 x6 | x6 | x6 | x6 | x6 | x6 | x6 | x6 | x6 | x6 | x6 | x6 | x6 | x6 | x6 | x6 | x6 | x6 | x6 | %134
 x6 | x6 | x6 | x6 | x6 | x6 | x6 | x6 | x6 | x6 | x6 | x6 | x6 | x6 | x6 | x6 | x6 | x6 | x6 | %153
 x6 | x5 :: x | x6 | x6 | x6 | x6 | x6 | x6 | x6 | x6 | x6 | x6 | x6 | x6 | x6 | x6 | x6 | x6 | %172
 x6 | x6 | x6 | x6 | x6 | x6 | x6 | x6 | x6 | x6 | x6 | x6 | x6 | x6 | x6 | x6 | x6 | x6 | x6 | %191
 x6 | x6 | x6 | x6 | x6 | x6 | x6 | x6 | G,,4 x :|[M:3/4] G,,2 x4 | G,,2 x4 | x6 | x6 | x6 | %205
 A,,2 x4 | x6 | x6 :: x6 | x6 | x6 | x6 | x6 | x6 | x6 | x2 A,,4 | x6 | x6 | x6 | x6 | x6 | x6 | %222
 x6 | x2 G,,4 :|[M:2/2] x2 | x8 | x8 | x8 | x8 | x8 | x8 | x8 | x6 :: x2 | x8 | x8 | x8 | x8 | x8 | %239
 x8 | x8 | x8 | x8 | x8 | x8 | x8 | x8 | x8 | x8 | x8 | x8 | x8 | x8 | x6 ::[K:Bb][M:2/2] x2 | x8 | %256
 x8 | x8 | x8 | x8 | x8 | x8 | x6 :: x2 | x8 | x8 | x8 | x8 | x8 | x8 | x8 | x8 | x8 | x8 | x8 | %275
 x8 | x8 | x8 | x8 | x6 :|[K:C][M:3/8] x | x3 | x3 | x3 | x3 | x3 | x3 | x3 | x3 | x3 | x3 | x3 | %292
 x3 | x3 | x3 | x3 | x3 | x3 | x3 | x3 | x3 | x3 | x3 | x3 | x3 | x3 | x3 | x3 | x3 | x3 | x3 | %311
 x3 | x3 | x3 | x3 | x3 | x3 | x3 | x3 | x3 | x3 | x3 | x3 | x3 | x3 | x3 | x3 | x3 | x2 :: x | %330
 x3 | x3 | x3 | x3 | x3 | x3 | x3 | x3 | x3 | x3 | x3 | x3 | x3 | x3 | x3 | x3 | x3 | x3 | x3 | %349
 x3 | x3 | x3 | x3 | x3 | x3 | x3 | x3 | x3 | x3 | x3 | x3 | x3 | x3 | x3 | x3 | x3 | x3 | x3 | %368
 x3 | x3 | x3 | x3 | x3 | x3 | x3 | x3 | x3 | x3 | x3 | x3 | x3 | x3 | x3 | x3 | x3 | x3 | x3 | %387
 x3 | x3 | G,,2 :| %390

